X:1
T:The Three McFarlands
M:6/8
L:1/4
K:G
 D/2| G G/2 G G/2| A- F/2 D D/2| D E/2 G/2G/2G/2| G3/2- G c/2| B A/2 B c/2|\
 d- B/2 G B/2| A G/2 F E/2| D3/2- D c/2| B- A/2 B c/2| d B/2 G B/2|\
 A G/2 F E/2| D3/2- D D/2| G F/2 G A/2| B3/2 D B,/2| C D/2 G F/2| G3/2- G||\
